build/img/icon/blockquote.svg

<svg width="22" height="19" viewBox="0 0 22 19" fill="none" xmlns="http://www.w3.org/2000/svg">
<path d="M0 11.7684C0 7.96308 0.559914 5.07382 1.67974 3.10067C2.79957 1.12752 4.64972 0.0939612 7.23019 0L8.6178 2.74832C7.15716 2.88926 6.13471 3.57047 5.55045 4.79194C4.96619 6.01342 4.67406 7.98657 4.67406 10.7114H8.54477V18.604H0V11.7684ZM12.8537 11.7684C12.8537 7.96308 13.4136 5.07382 14.5334 3.10067C15.6532 1.12752 17.5034 0.0939612 20.0839 0L21.4715 2.74832C20.0108 2.88926 18.9884 3.57047 18.4041 4.79194C17.8199 6.01342 17.5277 7.98657 17.5277 10.7114H21.3984V18.604H12.8537V11.7684Z" fill="#525861"/>
</svg>

<svg width="22" height="19" fill="none" xmlns="http://www.w3.org/2000/svg"><path d="M0 11.768c0-3.805.56-6.694 1.68-8.667C2.8 1.128 4.65.094 7.23 0l1.388 2.748c-1.46.141-2.483.822-3.068 2.044-.584 1.221-.876 3.195-.876 5.92h3.87v7.892H0v-6.836zm12.854 0c0-3.805.56-6.694 1.68-8.667 1.12-1.973 2.97-3.007 5.55-3.101l1.387 2.748c-1.46.141-2.483.822-3.067 2.044-.584 1.221-.876 3.195-.876 5.92h3.87v7.892h-8.544v-6.836z" fill="#525861"/></svg>
